X:992
T:Tamerack'er Down
C:Donald Angus Beaton
S:Album-Andrea Beaton, Licence to Drive 'Er (2002)
Z:Nigel Gatherer
L:1/8
M:4/4
K:A
f | ecBc AFEF | A2 Af ecce | =g2 fa ecBc | AFEF A/A/A Af | ecBc A/A/A A :|
f | eAce =g2 fa | eAce fBBf | ecce f2 bf | ecBc A/A/A A :|
<end>
<start>
